X:1
T:Why do you seek by flight? -East
T:James Gibb editions
T:#
%%score { 1 | 2 } 3 4 { ( 5 6 7 ) | 8 }
L:1/8
Q:1/4=112
M:4/4
K:F
V:1 treble nm="Soprano I" snm="S"
V:2 treble 
V:3 treble nm="Alto" snm="A"
V:4 treble-8 nm="Tenor" snm="T"
V:5 treble nm="Practice"
V:6 treble 
V:7 treble 
V:8 bass 
V:1
 z8 |"^Why do you seek by flight" z8 | z8 | z4 z2 A2 |"^Michael East\n(c.1580-1648)" B3 c d2 d2 | %5
w: |||Why|~do you seek by|
[M:4/4] (cBcd e2) f2 | e2 (d3 ^c/=B/ c2) | d8 | d2 d2 G4 | z4 z2 A2 | d2 B2 A2 A2 | B3 c d2 d2 | %12
w: flight * * * * me|to es\- * * *|chew,|to es- chew,|me|to es- chew, why|do you seek by|
 (cBcd _e2) d2 | d6 d2 | d4 B4 | B2 A2 B2 f2 | _e3 (dcB c2) ||[M:3/4] d4 z2 | d3 c B2 | A2 G2 ^F2 | %20
w: flight * * * * me|to es-|chew, whom|to your- self, whom|to your\- * * *|self|you with your|beau- ty drew,|
 B3 A G2 ||[M:4/4] (^FD G4) F2 | G8- |[M:4/4] G8 | z4 B4- | B4 A4 | (B3 c d2 _e2) | f8 | d4 d4- | %29
w: you with your|beau\- * * ty|drew?||If|* I|~~did * * *|seek,|if I|
 d4 c4 | d4 d4 ||[M:3/4] B6 | A2 G2 A2 | B6- |[M:3/4] B2 A2 ^F2 ||[M:4/4] GABc d2 B2 | A2 G4 ^F2 | %37
w: * did|seek your|love|by sub- tle|feign\-|* ing, then|might you run a- way from|me dis- dain-|
 G4 z2 A2 |[M:4/4] cdef g4- | g2 f2 e3 e | d2 d2 z4 | z2 D2 GABc | d8 | z4 z2 f2- | f2 _e4 e2 | %45
w: ing, then|might you run a- way|* from me dis-|dain- ing,|then might you run a-|way|from|* me dis-|
 d2 G2 z2 A2 | Bcd_e d4 | z4 z2 f2 | f6[Q:1/4=110][Q:1/4=110] d2 | %49
w: dain- ing, then|~~might you run a- way,|a-|way from|
[Q:1/4=108][Q:1/4=108] (g3[Q:1/4=106][Q:1/4=106] f[Q:1/4=104][Q:1/4=104] _e2)[Q:1/4=102][Q:1/4=102] e2 | %50
w: me * * dis-|
[Q:1/4=97][Q:1/4=97] d8 |[Q:1/4=94][Q:1/4=94] !fermata!d8 |] %52
w: dain-|ing.|
V:2
 G4 d3 e | f2 f2 _e2 e2 | d2 d2 (cBcd | c2) B2 A2 A2 | G4 z4 |[M:4/4] z2 c2 (cBAB | c2) F2 A2 A2 | %7
w: Why do you|seek, why do you|seek by flight * * *|* me to es-|chew,|by flight * * *|* me to es-|
 A4 z2 A2 | B3 c d2 d2 | (_edcB A2) ^F2 | A2 G2 ^F4 | z8 | z2 c2 (GABc | A2) G2 A2 A2 | =B4 d4 | %15
w: chew, why|~do you seek by|flight * * * * me|to es- chew,||by flight * * *|* me to es-|chew, whom|
 d2 d2 d2 d2 | g4 f4 ||[M:3/4] f4 z2 | f3 e d2 | c2 B2 A2 | d3 c B2 ||[M:4/4] (A2 Bc d2) d2 | d8 | %23
w: to your- self, whom|to your-|self|you with your|beau- ty drew,|you with your|beau\- * * * ty|drew?|
[M:4/4] z4 g4- | g4 f4 | _e8 | d4 d4- | d4 c4 | B4 A2 A2 | G6 A2 | B4 A4 ||[M:3/4] G6 | A2 B2 A2 | %33
w: If|* I|did|seek, if|* I|did seek, if|I did|seek your|love|by sub- tle|
 G6- |[M:3/4] G2 ^F2 A2 ||[M:4/4] Bcde f2 d2 | c2 B2 A4 | G4 z4 |[M:4/4] z8 | z4 z2 E2 | %40
w: feign\-|* ing, then|might you run a- way from|me dis- dain-|ing,||then|
 FGAB c2 A2 | G2 ^F2 B2 G2 | z2 D2 GABc | d4 c4 | d2 B2 (c4- | c2 B2 A4) | G4 z2 ^F2 | GABc d4- | %48
w: might you run a- way from|me dis- dain- ing,|then might you run a-|way from|me ~dis- dain\-||ing, then|might you run a- way|
 d2 d2 c2 B2 | _e3 d c4- | c2 B2 A4 | !fermata!=B8 |] %52
w: * from me, a-|way from me|* dis- dain-|ing.|
V:3
 z8 | z2 D2 G3 A | B2 B2 (AGAB | A2) G2 G2 ^F2 | G2 G2 D2 F2 |[M:4/4] G4 z4 | z4 E4 | F3 G A2 D2 | %8
w: |Why do you|seek by flight * * *|* me to es-|chew, me to es-|chew,|why|do you seek, why|
 G3 A B2 B2 | (cBAG ^F2) D2 | ^F2 G2 D2 D2 | D2 D2 D4 | z2 F2 (_EFGA | ^F2) G2 G2 F2 | G4 G4 | %15
w: do you seek by|flight * * * * me|to es- chew, why|do you seek|by flight * * *|* me to es-|chew, whom|
 D2 D2 B2 A2 | (GA B4) A2 ||[M:3/4] B4 z2 | D3 A, B,2 | F2 G2 D2- | D2 z2 D2- || %21
w: to your- self, whom|to * * your-|self|you ~with your|beau- ty drew,|* you|
[M:4/4] DC B,2 A,2 A,2 | =B,8 |[M:4/4] z8 | z8 | z8 | z4 B4- | B4 A4 | (G4 F4 | _E8) | D4 F4 || %31
w: * with your beau- ty|drew?||||If|* I|did *||seek your|
[M:3/4] D6 | D2 D2 D2 | D6- |[M:3/4] D2 D4 ||[M:4/4] z8 | z4 z2 A,2 | B,CDE F4- | %38
w: love|by sub- tle|feign\-|* ing,||then|might you run a- way|
[M:4/4] F2 E2 E2 D2 | (^C2 D4 C2) | D4 z2 F2 | B2 A2 G4 | ^F4 z2 B,2 | DEFG A4- | A2 G2 G2 A2 | %45
w: * from me dis-|dain\- * *|ing, from|me dis- dain-|ing, then|might you run a- way|* from me dis-|
 (^F2 G4 F2) | G4 z2 D2 | _EFGA B4- | B2 B2 A2 G2 | (G6 A2 | ^F2 G4 F2) | !fermata!G8 |] %52
w: dain\- * *|ing, then|might you run a- way|* from me dis-|dain\- *||ing.|
V:4
 z8 | z8 | z8 | z4 D4 | G3 A B2 B2 |[M:4/4][K:treble-8] (AGAB c2) d2 | A6 A2 | D8 | z8 | z8 | %10
w: |||Why|do you seek by|flight * * * * me|to es-|chew,|||
 z4 z2 D2 | G3 A B2 B2 | (AGAB c2) G2 | d6 d2 | G4 G4 | G2 ^F2 G2 D2 | _E4 F4 ||[M:3/4] B4 z2 | %18
w: why|do you seek by|flight * * * * me|to es-|chew, whom|to your- self, whom|to your-|self|
 z6 | z6 | B3 F G2 ||[M:4/4] D6 D2 | G8 |[M:4/4][K:treble-8] _e8- | e4 d4 | c8 | B8 | z8 | z8 | %29
w: ||you with your|beau- ty|drew?|If|* I|did|seek|||
 z8 | z4 D4 ||[M:3/4] G6 | ^F2 G2 F2 | G6- |[M:3/4][K:treble-8] G2 D4 ||[M:4/4] z8 | z4 D4 | %37
w: |your|love|by sub- tle|feign\-|* ing,||then|
 GABc d4 |[M:4/4][K:treble-8] A2 c4 G2 | A8 | D4 z4 | z8 | z4 z2 G2 | Bcde f4 | d2 _e4 c2 | d8 | %46
w: might you run a- way|from me dis-|dain-|ing,||then|might you run a- way|from me dis-|dain-|
 G4 z4 | z8 | z2 B2 F2 G2 | (C3 D _E2 C2 | D8) | !fermata!G8 |] %52
w: ing,||from me dis-|dain~~\- * * *||ing.|
V:5
 x8 | x8 | x8 | x6 A2 | B3 c d2 d2 |[M:4/4] cBcd e2 f2 | e2 d3 ^c/=B/ c2 | d8 | d2 d2 G4 | %9
 x4 x2 A2 | d2 B2 A2 A2 | B3 c d2 d2 | cBcd _e2 d2 | d6 d2 | d4 _B4 | B2 A2 B2 f2 | _e3 dcB c2 || %17
[M:3/4] d4 z2 | d3 c B2 | A2 G2 ^F2 | B3 A G2 ||[M:4/4] ^FD G4 F2 | G8- |[M:4/4] G8 | x4 B4- | %25
 B4 A4 | B3 c d2 _e2 | f8 | d4 d4- | d4 c4 | d4 d4 ||[M:3/4] B6 | A2 G2 A2 | B6- | %34
[M:3/4] B2 A2 ^F2 ||[M:4/4] GABc d2 B2 | A2 G4 ^F2 | G4 z2 A2 |[M:4/4] cdef g4- | g2 f2 e3 e | %40
 d2 d2 x4 | x2 D2 GABc | d8 | x4 z2 f2- | f2 _e2- e2 e2 | [cd]2 G2 x2 A2 | Bcd_e d4 | x4 z2 f2 | %48
 f6 d2 | g3 f _e2 e2 | d8 | d8 |] %52
V:6
 G4 d3 e | f2 f2 _e2 e2 | d2 d2 cBcd | c2 B2 [GA]2 A2 | G4 x4 |[M:4/4] x2 c2 cBAB | c2 F2 A2 A2 | %7
 A4 x2 A2 | B3 c d2 d2 | _edcB A2 ^F2 | A2 G2 ^F2- F2 | x8 | x2 c2 GABc | A2 G2 A2 A2 | =B4 d4 | %15
 d2 d2 d2 d2 | g4 f4 ||[M:3/4] f4 z2 | f3 e d2 | c2 B2 A2 | d3 c B2 ||[M:4/4] A2 Bc d2 d2 | d8 | %23
[M:4/4] x4 g4- | g4 f4 | _e8 | d4 d4- | d4 c4 | B4 A2 A2 | G6 A2 | B4 A4 ||[M:3/4] G6 | A2 B2 A2 | %33
 G6- |[M:3/4] G2 ^F2 A2 ||[M:4/4] Bcde f2 d2 | c2 B2 A4 | G4 x4 |[M:4/4] x8 | x4 z2 E2 | %40
 FGAB c2 A2 | G2 ^F2 B2 G2 | x2 D2 GABc | d4 c4 | d2 B2 c2- c2 | c2 B2 [GA]2- A2 | G4 x2 ^F2 | %47
 GABc d4- | d2 d2 c2 B2 | _e3 d c2- c2 | c2 B2 A2- A2 | =B8 |] %52
V:7
 x8 | x2[I:staff +1] D2[I:staff -1] G3 A | B2 B2 AGAB | A2 G2 G2 ^F2 | G2 G2 D2 F2 | %5
[M:4/4] G2- G2 x4 | x4 E2- E2 | F3 G A2 D2 | G3 A B2 B2 | cBAG ^F2 D2 | ^F2 G2 D2 D2 | %11
 D2 D2 D2- D2 | x2 F2 _EFGA | ^F2 G2 [GA]2 F2 | G4 G4 | D2 D2 B2 A2 | GA B4 A2 ||[M:3/4] B4 z2 | %18
[I:staff +1] D3 A, B,2 |[I:staff -1] F2 G2[I:staff +1] D2- | D2[I:staff -1] x2 D2- || %21
[M:4/4] D[CD][I:staff +1] B,2 A,2 A,2 | =B,8 |[M:4/4][I:staff -1] x8 | x8 | x8 | x4 B4- | B4 A4 | %28
 G4 F4 |[I:staff +1] _E8 | D4[I:staff -1] F4 ||[M:3/4] D6 | D2 D2 D2 | D6- |[M:3/4] D2 D4 || %35
[M:4/4] x8 | x4 x2[I:staff +1] A,2 | B,CDE F4- |[M:4/4] F2 E2 E2 D2 | ^C2 D4 C2 | %40
 D4[I:staff -1] x2 F2 | B2 A2 G2- G2 | ^F2- F2 x2[I:staff +1] B,2 | DEFG[I:staff -1] A4- | %44
 A2 G2 G2 A2 | ^F2 G2- G2 F2 | G4 z2 D2 | _EFGA B4- | B2 B2 A2 G2 | G6 A2 | ^F2 G2- [GA]2 F2 | %51
 !fermata!G8 |] %52
V:8
 z8 | x8 | z8 | z4 D,4 | G,3 A, B,2 B,2 |[M:4/4] A,G,A,B, C2 D2 | A,6 A,2 | D,8 | z8 | z8 | %10
 z4 z2 D,2 | G,3 A, B,2 B,2 | A,G,A,B, C2 G,2 | D6 D2 | G,4 G,4 | G,2 ^F,2 G,2 D,2 | _E,4 F,4 || %17
[M:3/4] B,4 z2 | x6 | x6 | B,3 F, G,2 ||[M:4/4] D,6 D,2 | G,8 |[M:4/4] _E8- | E4 D4 | C8 | B,8 | %27
 z8 | z8 | x8 | x4 D,4 ||[M:3/4] G,6 | ^F,2 G,2 F,2 | G,6- |[M:3/4] G,2 D,4 ||[M:4/4] z8 | z4 D,4 | %37
 G,A,B,C D4 |[M:4/4] A,2 C4 G,2 | A,8 | D,4 z4 | z8 | z4 z2 G,2 | B,CDE F4 | D2 _E4 C2 | D8 | %46
 G,4 z4 | z8 | z2 B,2 F,2 G,2 | C,3 D, _E,2 C,2 | D,8 | !fermata!G,8 |] %52

